SVG/automobile.svg

<?xml version="1.0" encoding="utf-8"?>
<!-- Generated by IcoMoon.io -->
<!DOCTYPE svg PUBLIC "-//W3C//DTD SVG 1.1//EN" "http://www.w3.org/Graphics/SVG/1.1/DTD/svg11.dtd">
<svg version="1.1" xmlns="http://www.w3.org/2000/svg" xmlns:xlink="http://www.w3.org/1999/xlink" width="16" height="14" viewBox="0 0 16 14">
<path fill="#444444" d="M3.75 8.5q0-0.516-0.367-0.883t-0.883-0.367-0.883 0.367-0.367 0.883 0.367 0.883 0.883 0.367 0.883-0.367 0.367-0.883zM4.031 6h7.937l-0.695-2.789q-0.016-0.062-0.109-0.137t-0.164-0.074h-6q-0.070 0-0.164 0.074t-0.109 0.137zM14.75 8.5q0-0.516-0.367-0.883t-0.883-0.367-0.883 0.367-0.367 0.883 0.367 0.883 0.883 0.367 0.883-0.367 0.367-0.883zM16 7.75v3q0 0.109-0.070 0.18t-0.18 0.070h-0.75v1q0 0.625-0.438 1.062t-1.062 0.438-1.062-0.438-0.438-1.062v-1h-8v1q0 0.625-0.438 1.062t-1.062 0.438-1.062-0.438-0.438-1.062v-1h-0.75q-0.109 0-0.18-0.070t-0.070-0.18v-3q0-0.727 0.512-1.238t1.238-0.512h0.219l0.82-3.273q0.18-0.734 0.813-1.23t1.398-0.496h6q0.766 0 1.398 0.496t0.813 1.23l0.82 3.273h0.219q0.727 0 1.238 0.512t0.512 1.238z"></path>
</svg>

<svg xmlns="http://www.w3.org/2000/svg" viewBox="0 0 16 14"><path d="M3.75 8.5q0-.516-.367-.883T2.5 7.25t-.883.367-.367.883.367.883.883.367.883-.367.367-.883zM4.03 6h7.938l-.695-2.79q-.016-.06-.11-.136T11 3H5q-.07 0-.164.074t-.11.137zm10.72 2.5q0-.516-.367-.883T13.5 7.25t-.883.367-.367.883.367.883.883.367.883-.367.367-.883zM16 7.75v3q0 .11-.07.18t-.18.07H15v1q0 .625-.438 1.062T13.5 13.5t-1.062-.438T12 12v-1H4v1q0 .625-.438 1.062T2.5 13.5t-1.062-.438T1 12v-1H.25q-.11 0-.18-.07T0 10.75v-3q0-.727.512-1.238T1.75 6h.22l.82-3.273q.18-.734.812-1.23T5 1h6q.766 0 1.398.497t.813 1.23L14.03 6h.22q.727 0 1.238.512T16 7.75z" /></svg>
